src/img/advisory/market.svg

<svg width="30" height="32" viewBox="0 0 30 32" fill="none" xmlns="http://www.w3.org/2000/svg">
<path d="M29.3812 30.4457H28.0239V10.7387C28.0239 9.82142 27.2777 9.0752 26.3604 9.0752H23.3268C22.4095 9.0752 21.6633 9.82148 21.6633 10.7387V30.4457H18.217V19.6675C18.217 18.7502 17.4707 18.004 16.5535 18.004H13.5198C12.6025 18.004 11.8563 18.7503 11.8563 19.6675V30.4457H8.41V24.8638C8.41 23.9465 7.66371 23.2003 6.7465 23.2003H3.71276C2.79549 23.2003 2.04927 23.9465 2.04927 24.8638V30.4457H0.618814C0.277043 30.4457 0 30.7227 0 31.0645C0 31.4063 0.277043 31.6833 0.618814 31.6833H29.3812C29.723 31.6833 30 31.4063 30 31.0645C30 30.7227 29.723 30.4457 29.3812 30.4457ZM7.17225 30.4457H3.28683V24.8638C3.28683 24.6289 3.47786 24.4379 3.7127 24.4379H6.74638C6.98122 24.4379 7.17225 24.6289 7.17225 24.8638V30.4457ZM16.9793 30.4457H13.0939V19.6675C13.0939 19.4327 13.2849 19.2416 13.5197 19.2416H16.5534C16.7882 19.2416 16.9793 19.4327 16.9793 19.6675V30.4457ZM26.7863 30.4457H22.9009V10.7387C22.9009 10.5039 23.0919 10.3128 23.3268 10.3128H26.3604C26.5953 10.3128 26.7863 10.5039 26.7863 10.7387V30.4457Z" fill="#19338B"/>
<path d="M28.0226 0.650745C28.0312 0.481871 27.9718 0.31015 27.8429 0.181189C27.7139 0.0522279 27.5422 -0.00724013 27.3733 0.00148515C27.3633 0.00105198 27.3535 0 27.3434 0H23.5995C23.2578 0 22.9807 0.277043 22.9807 0.618814C22.9807 0.960586 23.2578 1.23763 23.5995 1.23763H25.9112L19.7938 7.3551L17.4869 5.04816C17.3709 4.93214 17.2134 4.86691 17.0493 4.86691C16.8852 4.86691 16.7278 4.93214 16.6118 5.04816L5.48739 16.1726C5.24574 16.4142 5.24574 16.8061 5.48739 17.0478C5.60824 17.1685 5.7666 17.2289 5.92495 17.2289C6.08331 17.2289 6.24172 17.1685 6.36251 17.0477L17.0493 6.36079L19.3563 8.66773C19.5979 8.90938 19.9897 8.90938 20.2314 8.66773L26.7864 2.11282V4.20503C26.7864 4.5468 27.0635 4.82384 27.4052 4.82384C27.747 4.82384 28.0241 4.5468 28.0241 4.20503V0.680696C28.0241 0.670609 28.023 0.66077 28.0226 0.650745Z" fill="#19338B"/>
<path d="M3.8394 19.3881C4.18116 19.3881 4.45821 19.111 4.45821 18.7693C4.45821 18.4275 4.18116 18.1505 3.8394 18.1505C3.49763 18.1505 3.22058 18.4275 3.22058 18.7693C3.22058 19.111 3.49763 19.3881 3.8394 19.3881Z" fill="#19338B"/>
</svg>

<svg xmlns="http://www.w3.org/2000/svg" width="30" height="32" fill="none"><path fill="#19338B" d="M29.38 30.45h-1.36V10.74c0-.92-.74-1.66-1.66-1.66h-3.03c-.92 0-1.67.74-1.67 1.66v19.7h-3.44V19.68c0-.92-.75-1.67-1.67-1.67h-3.03c-.92 0-1.66.75-1.66 1.67v10.78H8.4v-5.59c0-.91-.75-1.66-1.66-1.66H3.7c-.91 0-1.66.75-1.66 1.66v5.59H.62a.62.62 0 100 1.23h28.76a.62.62 0 100-1.23zm-22.2 0h-3.9v-5.59c0-.23.2-.42.43-.42h3.04c.23 0 .42.19.42.42v5.59zm9.8 0h-3.89V19.67c0-.24.2-.43.43-.43h3.03c.24 0 .43.2.43.43v10.78zm9.8 0H22.9V10.74c0-.24.2-.43.43-.43h3.03c.24 0 .43.2.43.43v19.7zM28.02.65a.62.62 0 00-.65-.65s-.02 0-.03 0H23.6a.62.62 0 000 1.24h2.31L19.8 7.36l-2.3-2.31a.62.62 0 00-.88 0L5.5 16.17a.62.62 0 00.87.88L17.05 6.36l2.3 2.3c.25.25.64.25.88 0l6.56-6.55v2.1a.62.62 0 001.23 0V.68s0-.02 0-.03zM3.84 19.39a.62.62 0 100-1.24.62.62 0 000 1.24z"/></svg>
